build/images/content/icons/icon-5.svg

<svg width="100" height="100" viewBox="0 0 100 100" fill="none" xmlns="http://www.w3.org/2000/svg">
<path d="M39.0195 13.0102L45.5795 8.66016H55.2995L61.8595 13.0102V85.2302H39.0195V13.0102Z" stroke="#393C4C" stroke-width="2" stroke-linecap="round" stroke-linejoin="round"/>
<path d="M50.4416 19.3096C51.3197 19.3096 52.0316 18.656 52.0316 17.8496C52.0316 17.0433 51.3197 16.3896 50.4416 16.3896C49.5634 16.3896 48.8516 17.0433 48.8516 17.8496C48.8516 18.656 49.5634 19.3096 50.4416 19.3096Z" fill="#393C4C"/>
<path d="M39.0195 22.1104H61.8595" stroke="#393C4C" stroke-width="2" stroke-linecap="round" stroke-linejoin="round"/>
<path d="M39.0195 71.1504H61.8595" stroke="#393C4C" stroke-width="2" stroke-linecap="round" stroke-linejoin="round"/>
<path d="M44.3984 70.7402V77.7802L46.0484 79.3203V85.1902" stroke="#393C4C" stroke-width="2" stroke-linejoin="round"/>
<path d="M56.4703 70.7402V77.7802L54.8203 79.3203V85.1902" stroke="#393C4C" stroke-width="2" stroke-linejoin="round"/>
<path d="M39.1997 35.9303L42.7997 29.0903L46.3597 35.9303H39.1997Z" stroke="#393C4C" stroke-linecap="round" stroke-linejoin="round"/>
<path d="M42.7997 29.0904H42.7197L46.3797 22.1104L50.0097 29.0904H42.7997Z" stroke="#393C4C" stroke-linecap="round" stroke-linejoin="round"/>
<path d="M50.0078 70.7603L53.6778 63.7803L57.3078 70.7603H57.2578H50.0078Z" stroke="#393C4C" stroke-linecap="round" stroke-linejoin="round"/>
<path d="M42.7195 42.9105L46.3695 35.9604L49.9595 42.8505H42.7695L46.3995 49.8304H46.3795H39.0396L42.6895 42.8604L42.7195 42.9105Z" stroke="#393C4C" stroke-linecap="round" stroke-linejoin="round"/>
<path d="M57.2613 29.0908L60.8213 35.9308H53.6812L57.2812 42.8508H50.0713H50.0312L57.2613 29.0908Z" stroke="#393C4C" stroke-linecap="round" stroke-linejoin="round"/>
<path d="M50.0078 29.0904L53.6778 22.1104L57.3078 29.0904H57.2578H50.0078Z" stroke="#393C4C" stroke-linecap="round" stroke-linejoin="round"/>
<path d="M57.3384 56.8106H50.0685H50.0085L53.6784 49.8306H46.3984L50.0685 42.8506L53.6985 49.8306L57.3584 42.8506L60.9884 49.8306H53.7084L57.3384 56.8106Z" stroke="#393C4C" stroke-linecap="round" stroke-linejoin="round"/>
<path d="M60.8595 77.6802H53.6795L57.2695 84.6003H50.0695H49.9995L57.2595 70.7603L60.8595 77.6802Z" stroke="#393C4C" stroke-linecap="round" stroke-linejoin="round"/>
<path d="M46.3797 63.7803L50.0097 70.7603H42.7997H42.7197L46.3797 63.7803Z" stroke="#393C4C" stroke-linecap="round" stroke-linejoin="round"/>
<path d="M46.3984 63.7805L50.0685 56.8105L53.6985 63.7805H53.6784H46.3984Z" stroke="#393C4C" stroke-linecap="round" stroke-linejoin="round"/>
<path d="M49.9608 42.8508L46.3708 35.9608L46.3808 35.9308H46.3608L42.8008 29.0908H50.0108H57.2608L50.0308 42.8508H49.9608Z" stroke="#393C4C" stroke-linecap="round" stroke-linejoin="round"/>
<path d="M60.8178 35.9308L57.2578 29.0908H57.3078H61.0478V36.3708L60.8978 36.0808L60.9678 35.9308H60.8178Z" stroke="#393C4C" stroke-linecap="round" stroke-linejoin="round"/>
<path d="M39.1996 35.9303H39.0895L39.1495 36.0403L39.0195 36.2903V29.0903H42.7195H42.7995L39.1996 35.9303Z" stroke="#393C4C" stroke-linecap="round" stroke-linejoin="round"/>
<path d="M57.2608 70.7607L50.0008 84.6007L42.8008 70.7607H50.0108H57.2608Z" stroke="#393C4C" stroke-linecap="round" stroke-linejoin="round"/>
<path d="M60.8578 77.6807L57.2578 70.7607H57.3078H61.0478V78.0407L60.9178 77.7807L60.9678 77.6807H60.8578Z" stroke="#393C4C" stroke-linecap="round" stroke-linejoin="round"/>
<path d="M39.1295 77.7502L39.0195 77.9602V70.7603H42.7195H42.7995L39.1696 77.6802H39.0895L39.1295 77.7502Z" stroke="#393C4C" stroke-linecap="round" stroke-linejoin="round"/>
<path d="M60.9876 63.7805L61.0476 63.6805V63.9305L57.3477 56.8206L57.3576 56.8105L60.9876 63.7805Z" stroke="#393C4C" stroke-linecap="round" stroke-linejoin="round"/>
<path d="M57.3409 56.8101L53.7109 49.8301H60.9909H61.0509V56.8101H57.3609H57.3409Z" stroke="#393C4C" stroke-linecap="round" stroke-linejoin="round"/>
<path d="M39.0195 63.8603V63.7503L39.0396 63.7803L42.6996 56.8103H39.0195V49.8303H39.0396H46.3795L39.0195 63.8603Z" stroke="#393C4C" stroke-linecap="round" stroke-linejoin="round"/>
<path d="M60.9697 22.1104L57.3097 29.0904L53.6797 22.1104H60.9697Z" stroke="#393C4C" stroke-linecap="round" stroke-linejoin="round"/>
<path d="M39.0894 22.1104H46.3794L42.7194 29.0904L39.0894 22.1104Z" stroke="#393C4C" stroke-linecap="round" stroke-linejoin="round"/>
<path d="M50.0094 70.7603L46.3794 63.7803H46.3994H53.6794L50.0094 70.7603Z" stroke="#393C4C" stroke-linecap="round" stroke-linejoin="round"/>
<path d="M53.6997 63.7803H60.9697L57.3097 70.7603L53.6797 63.7803H53.6997Z" stroke="#393C4C" stroke-linecap="round" stroke-linejoin="round"/>
<path d="M53.6797 77.6804H60.8597H60.9697L60.9197 77.7804L57.3397 84.6004H57.2697L53.6797 77.6804Z" stroke="#393C4C" stroke-linecap="round" stroke-linejoin="round"/>
<path d="M39.0894 63.7803H46.3794L42.7194 70.7603L39.0894 63.7803Z" stroke="#393C4C" stroke-linecap="round" stroke-linejoin="round"/>
<path d="M42.6894 84.6004L39.1294 77.7504L39.0894 77.6804H39.1694H46.3794L42.7194 84.6504L42.6894 84.6104L42.6994 84.6004H42.6894Z" stroke="#393C4C" stroke-linecap="round" stroke-linejoin="round"/>
<path d="M53.6797 35.9304H60.8197H60.9697L60.8997 36.0804L57.3397 42.8504H57.2797L53.6797 35.9304Z" stroke="#393C4C" stroke-linecap="round" stroke-linejoin="round"/>
<path d="M39.1994 35.9304H46.3593H46.3794L46.3694 35.9604L42.7194 42.9104L42.6894 42.8604L42.6994 42.8504H42.6894L39.1494 36.0404L39.0894 35.9304H39.1994Z" stroke="#393C4C" stroke-linecap="round" stroke-linejoin="round"/>
<path d="M53.6794 49.8303L50.0094 56.8103L46.3794 49.8303H46.3994H53.6794Z" stroke="#393C4C" stroke-linecap="round" stroke-linejoin="round"/>
<path d="M50.0693 42.8503H57.2793H57.3393H57.3593L53.6993 49.8303L50.0693 42.8503Z" stroke="#393C4C" stroke-linecap="round" stroke-linejoin="round"/>
<path d="M61.0494 42.8503V49.7203L60.9894 49.8303L57.3594 42.8503H61.0494Z" stroke="#393C4C" stroke-linecap="round" stroke-linejoin="round"/>
<path d="M49.9595 42.8503H50.0295H50.0695L46.3995 49.8303L42.7695 42.8503H49.9595Z" stroke="#393C4C" stroke-linecap="round" stroke-linejoin="round"/>
<path d="M42.6895 42.8603L39.0396 49.8303L39.0195 49.7903V42.8503H42.6895H42.6996L42.6895 42.8603Z" stroke="#393C4C" stroke-linecap="round" stroke-linejoin="round"/>
<path d="M57.3393 84.6003H57.3593L53.6993 91.5703L50.0693 84.6003H57.2693H57.3393Z" stroke="#393C4C" stroke-linecap="round" stroke-linejoin="round"/>
<path d="M61.0494 91.4703L60.9894 91.5703L57.3594 84.6003H61.0494V91.4703Z" stroke="#393C4C" stroke-linecap="round" stroke-linejoin="round"/>
<path d="M46.3995 91.5703L42.7695 84.6003H49.9995H50.0695L46.3995 91.5703Z" stroke="#393C4C" stroke-linecap="round" stroke-linejoin="round"/>
<path d="M42.6895 84.6003H42.6996L42.6895 84.6103L39.0396 91.5703L39.0195 91.5403V84.6003H42.6895Z" stroke="#393C4C" stroke-linecap="round" stroke-linejoin="round"/>
<path d="M57.3393 56.8103H57.3593L57.3493 56.8203L53.6993 63.7803L50.0693 56.8103H57.3393Z" stroke="#393C4C" stroke-linecap="round" stroke-linejoin="round"/>
<path d="M57.3594 56.8103H61.0494V63.6803L60.9894 63.7803L57.3594 56.8103Z" stroke="#393C4C" stroke-linecap="round" stroke-linejoin="round"/>
<path d="M46.3995 63.7803L42.7695 56.8103H50.0096H50.0695L46.3995 63.7803Z" stroke="#393C4C" stroke-linecap="round" stroke-linejoin="round"/>
<path d="M39.0396 63.7803L39.0195 63.7503V56.8103H42.6996L39.0396 63.7803Z" stroke="#393C4C" stroke-linecap="round" stroke-linejoin="round"/>
<path d="M54.4989 15.3696C54.4989 16.1726 54.2608 16.9575 53.8147 17.6252C53.3686 18.2928 52.7345 18.8132 51.9926 19.1205C51.2507 19.4278 50.4344 19.5082 49.6468 19.3515C48.8593 19.1949 48.1359 18.8082 47.5681 18.2404C47.0003 17.6726 46.6136 16.9492 46.4569 16.1616C46.3003 15.3741 46.3807 14.5577 46.688 13.8159C46.9953 13.074 47.5156 12.4399 48.1833 11.9938C48.851 11.5477 49.6359 11.3096 50.4389 11.3096C51.5157 11.3096 52.5484 11.7373 53.3098 12.4987C54.0712 13.2601 54.4989 14.2928 54.4989 15.3696Z" fill="#F91A2B"/>
</svg>

<svg width="100" height="100" fill="none" xmlns="http://www.w3.org/2000/svg"><path d="M39.02 13.01l6.56-4.35h9.72l6.56 4.35v72.22H39.02V13.01z" stroke="#393C4C" stroke-width="2" stroke-linecap="round" stroke-linejoin="round"/><path d="M50.442 19.31c.878 0 1.59-.654 1.59-1.46 0-.807-.712-1.46-1.59-1.46-.879 0-1.59.653-1.59 1.46 0 .806.711 1.46 1.59 1.46z" fill="#393C4C"/><path d="M39.02 22.11h22.84M39.02 71.15h22.84" stroke="#393C4C" stroke-width="2" stroke-linecap="round" stroke-linejoin="round"/><path d="M44.398 70.74v7.04l1.65 1.54v5.87M56.47 70.74v7.04l-1.65 1.54v5.87" stroke="#393C4C" stroke-width="2" stroke-linejoin="round"/><path d="M39.2 35.93l3.6-6.84 3.56 6.84H39.2zm3.6-6.84h-.08l3.66-6.98 3.63 6.98H42.8zm7.208 41.67l3.67-6.98 3.63 6.98h-7.3zM42.72 42.91l3.65-6.95 3.59 6.89h-7.19l3.63 6.98h-7.36l3.65-6.97.03.05zm14.541-13.82l3.56 6.84h-7.14l3.6 6.92h-7.25l7.23-13.76z" stroke="#393C4C" stroke-linecap="round" stroke-linejoin="round"/><path d="M50.008 29.09l3.67-6.98 3.63 6.98h-7.3zm7.33 27.72h-7.33l3.67-6.98h-7.28l3.67-6.98 3.63 6.98 3.66-6.98 3.63 6.98h-7.28l3.63 6.98zm3.522 20.87h-7.18l3.59 6.92H50l7.26-13.84 3.6 6.92zm-14.48-13.9l3.63 6.98h-7.29l3.66-6.98zm.018 0l3.67-6.97 3.63 6.97h-7.3zm3.562-20.93l-3.59-6.89.01-.03h-.02l-3.56-6.84h14.46l-7.23 13.76h-.07z" stroke="#393C4C" stroke-linecap="round" stroke-linejoin="round"/><path d="M60.818 35.93l-3.56-6.84h3.79v7.28l-.15-.29.07-.15h-.15zm-21.618 0h-.11l.06.11-.13.25v-7.2h3.78l-3.6 6.84zm18.06 34.83L50 84.6l-7.2-13.84h14.46z" stroke="#393C4C" stroke-linecap="round" stroke-linejoin="round"/><path d="M60.858 77.68l-3.6-6.92h3.79v7.28l-.13-.26.05-.1h-.11zm-21.728.07l-.11.21v-7.2h3.78l-3.63 6.92h-.08l.04.07zm21.858-13.97l.06-.1v.25l-3.7-7.11.01-.01 3.63 6.97zm-3.648-6.97l-3.63-6.98h7.34v6.98h-3.71zm-18.32 7.05v-.11l.02.03 3.66-6.97h-3.68v-6.98h7.36l-7.36 14.03zm21.95-41.75l-3.66 6.98-3.63-6.98h7.29zm-21.88 0h7.29l-3.66 6.98-3.63-6.98zm10.92 48.65l-3.63-6.98h7.3l-3.67 6.98z" stroke="#393C4C" stroke-linecap="round" stroke-linejoin="round"/><path d="M53.7 63.78h7.27l-3.66 6.98-3.63-6.98h.02zm-.02 13.9h7.29l-.05.1-3.58 6.82h-.07l-3.59-6.92zm-14.59-13.9h7.29l-3.66 6.98-3.63-6.98zm3.6 20.82l-3.56-6.85-.04-.07h7.29l-3.66 6.97-.03-.04.01-.01h-.01zm10.99-48.67h7.29l-.07.15-3.56 6.77h-.06l-3.6-6.92zm-14.48 0h7.18l-.01.03-3.65 6.95-.03-.05.01-.01h-.01l-3.54-6.81-.06-.11h.11zm14.48 13.9l-3.67 6.98-3.63-6.98h7.3zm-3.61-6.98h7.29l-3.66 6.98-3.63-6.98z" stroke="#393C4C" stroke-linecap="round" stroke-linejoin="round"/><path d="M61.05 42.85v6.87l-.06.11-3.63-6.98h3.69zm-11.09 0h.11l-3.67 6.98-3.63-6.98h7.19zm-7.27.01l-3.65 6.97-.02-.04v-6.94h3.68l-.01.01zM57.34 84.6h.02l-3.66 6.97-3.63-6.97h7.27z" stroke="#393C4C" stroke-linecap="round" stroke-linejoin="round"/><path d="M61.05 91.47l-.06.1-3.63-6.97h3.69v6.87zm-14.65.1l-3.63-6.97h7.3l-3.67 6.97zm-3.71-6.97h.01l-.01.01-3.65 6.96-.02-.03V84.6h3.67zm14.65-27.79h.02l-.01.01-3.65 6.96-3.63-6.97h7.27z" stroke="#393C4C" stroke-linecap="round" stroke-linejoin="round"/><path d="M57.36 56.81h3.69v6.87l-.06.1-3.63-6.97zM46.4 63.78l-3.63-6.97h7.3l-3.67 6.97zm-7.36 0l-.02-.03v-6.94h3.68l-3.66 6.97z" stroke="#393C4C" stroke-linecap="round" stroke-linejoin="round"/><path d="M54.499 15.37a4.06 4.06 0 11-8.12 0 4.06 4.06 0 018.12 0z" fill="#F91A2B"/></svg>
